X: 27580
T: Mons Meg
R: strathspey
M: 4/4
K: Dmajor
A|d2c>d (3Bcd cA|B<g g>B cA A>g|f<a a2 a>g (3efg|f<a a2 a>f d>A|
d2c>d (3Bcd cA|B<g g>B cA A>g|f<a a2 a>g (3efg|fd|f>d e>c d2 d||
g|fd (3efg a>f d>f|g>B e>d cA A>g|a2 a>f d>f a>g|f>d e>d c<e (3efg|
f>d (3efg a>f d>f|g>B e>d c<e A>g|a2 a>f d>f a>g|f>d e>c d2 d||

